Simply white circles/scalable/mimes/libreoffice-oasis-presentation-template.svg

<?xml version="1.0" encoding="UTF-8" standalone="no"?>
<!-- Created with Inkscape (http://www.inkscape.org/) -->

<svg
   xmlns:dc="http://purl.org/dc/elements/1.1/"
   xmlns:cc="http://creativecommons.org/ns#"
   xmlns:rdf="http://www.w3.org/1999/02/22-rdf-syntax-ns#"
   xmlns:svg="http://www.w3.org/2000/svg"
   xmlns="http://www.w3.org/2000/svg"
   xmlns:xlink="http://www.w3.org/1999/xlink"
   xmlns:sodipodi="http://sodipodi.sourceforge.net/DTD/sodipodi-0.dtd"
   xmlns:inkscape="http://www.inkscape.org/namespaces/inkscape"
   version="1.1"
   width="48"
   height="48"
   id="svg21744"
   sodipodi:docname="libreoffice-oasis-presentation-template.svg"
   inkscape:version="0.92.3 (2405546, 2018-03-11)">
  <sodipodi:namedview
     pagecolor="#ffffff"
     bordercolor="#666666"
     borderopacity="1"
     objecttolerance="10"
     gridtolerance="10"
     guidetolerance="10"
     inkscape:pageopacity="0"
     inkscape:pageshadow="2"
     inkscape:window-width="1366"
     inkscape:window-height="719"
     id="namedview44"
     showgrid="false"
     inkscape:zoom="5.5416667"
     inkscape:cx="24"
     inkscape:cy="24"
     inkscape:window-x="0"
     inkscape:window-y="25"
     inkscape:window-maximized="1"
     inkscape:current-layer="svg21744"
     inkscape:snap-global="false"
     showguides="true"
     inkscape:guide-bbox="true" />
  <defs
     id="defs21746">
    <linearGradient
       x1="525.4375"
       y1="836.1875"
       x2="516.65625"
       y2="828.5"
       id="linearGradient14113"
       xlink:href="#linearGradient14494-2-7"
       gradientUnits="userSpaceOnUse"
       gradientTransform="translate(-125.5,-1702.64)" />
    <linearGradient
       id="linearGradient14494-2-7">
      <stop
         id="stop14496-9-3"
         style="stop-color:#dc85e9;stop-opacity:1"
         offset="0" />
      <stop
         id="stop14498-9-7"
         style="stop-color:#f2cbf8;stop-opacity:1"
         offset="1" />
    </linearGradient>
    <linearGradient
       x1="520.58502"
       y1="735.05206"
       x2="516.15179"
       y2="720.86298"
       id="linearGradient14115"
       xlink:href="#linearGradient14494-5"
       gradientUnits="userSpaceOnUse" />
    <linearGradient
       id="linearGradient14494-5">
      <stop
         id="stop14496-5"
         style="stop-color:#dc85e9;stop-opacity:1"
         offset="0" />
      <stop
         id="stop14498-1"
         style="stop-color:#f2cbf8;stop-opacity:1"
         offset="1" />
    </linearGradient>
    <linearGradient
       x1="525.4375"
       y1="836.1875"
       x2="516.65625"
       y2="828.5"
       id="linearGradient54948"
       xlink:href="#linearGradient14494-2-7"
       gradientUnits="userSpaceOnUse"
       gradientTransform="translate(-462.50049,-802.00385)" />
    <linearGradient
       x1="520.58502"
       y1="735.05206"
       x2="516.15179"
       y2="720.86298"
       id="linearGradient14109"
       xlink:href="#linearGradient14494-5"
       gradientUnits="userSpaceOnUse"
       gradientTransform="matrix(0.512535,0,0,0.615385,-202.35949,-422.92385)" />
    <linearGradient
       x1="525.4375"
       y1="836.1875"
       x2="516.65625"
       y2="828.5"
       id="linearGradient54952"
       xlink:href="#linearGradient14494-2-7"
       gradientUnits="userSpaceOnUse"
       gradientTransform="translate(-462.50049,-797.50385)" />
    <linearGradient
       x1="209.0625"
       y1="-765.46082"
       x2="209.0625"
       y2="-781.62268"
       id="linearGradient44039"
       xlink:href="#linearGradient15606-1"
       gradientUnits="userSpaceOnUse"
       gradientTransform="matrix(1.5,0,0,1.5,-364.99949,1176.9562)" />
    <linearGradient
       id="linearGradient15606-1">
      <stop
         id="stop15608-0"
         style="stop-color:#ffffff;stop-opacity:0.58823502"
         offset="0" />
      <stop
         id="stop15610-5"
         style="stop-color:#ffffff;stop-opacity:0.86274499"
         offset="1" />
    </linearGradient>
    <linearGradient
       x1="294.3429"
       y1="256.58133"
       x2="294.41818"
       y2="243.13852"
       id="linearGradient44042"
       xlink:href="#linearGradient10286-3"
       gradientUnits="userSpaceOnUse"
       gradientTransform="matrix(2.99213,0,0,3.00466,-830.71149,-727.44385)" />
    <linearGradient
       id="linearGradient10286-3">
      <stop
         id="stop10288-8"
         style="stop-color:#b3b3b3;stop-opacity:1"
         offset="0" />
      <stop
         id="stop10290-7"
         style="stop-color:#e6e6e6;stop-opacity:1"
         offset="1" />
    </linearGradient>
    <linearGradient
       x1="110.96875"
       y1="976.29968"
       x2="110.96875"
       y2="992.375"
       id="linearGradient43236"
       xlink:href="#linearGradient4145-42"
       gradientUnits="userSpaceOnUse" />
    <linearGradient
       id="linearGradient4145-42">
      <stop
         id="stop4953"
         style="stop-color:#e694bb;stop-opacity:1"
         offset="0" />
      <stop
         id="stop4955"
         style="stop-color:#d3819a;stop-opacity:1"
         offset="0.26238" />
      <stop
         id="stop4957"
         style="stop-color:#b25a64;stop-opacity:1"
         offset="0.704952" />
      <stop
         id="stop4959"
         style="stop-color:#98313d;stop-opacity:1"
         offset="1" />
    </linearGradient>
    <linearGradient
       x1="110.96875"
       y1="976.29968"
       x2="110.99982"
       y2="991.87488"
       id="linearGradient14097-7"
       xlink:href="#linearGradient4145-42"
       gradientUnits="userSpaceOnUse"
       gradientTransform="matrix(1,0,0,1.00011,0,-0.10551)" />
    <linearGradient
       x1="110.96875"
       y1="976.29968"
       x2="110.96875"
       y2="992.375"
       id="linearGradient21742"
       xlink:href="#linearGradient4145-42"
       gradientUnits="userSpaceOnUse"
       gradientTransform="matrix(1.00399,0,0,1.00959,-1.1658,-9.36636)" />
    <clipPath
       clipPathUnits="userSpaceOnUse"
       id="clipPath867">
      <g
         inkscape:label="Clip"
         id="use869">
        <path
           d="m 47.000614,3.0210706 v 0.75 40.5000404 0.72723 h 0.75 32.499399 0.75 v -0.72723 -25.50003 -0.3282 l -0.2344,-0.2343 -14.9059,-15.0000104 -0.1875,-0.1875 h -0.3282 -17.593399 z"
           id="path875"
           style="color:#000000;font-style:normal;font-variant:normal;font-weight:normal;font-stretch:normal;font-size:medium;line-height:normal;font-family:'Andale Mono';text-indent:0pt;text-align:start;text-decoration:none;text-decoration-line:none;letter-spacing:normal;word-spacing:normal;text-transform:none;direction:ltr;text-anchor:start;display:inline;overflow:visible;visibility:visible;fill:#000000;fill-opacity:1;fill-rule:nonzero;stroke:none;stroke-width:1;marker:none"
           inkscape:connector-curvature="0" />
      </g>
    </clipPath>
  </defs>
  <metadata
     id="metadata21749">
    <rdf:RDF>
      <cc:Work
         rdf:about="">
        <dc:format>image/svg+xml</dc:format>
        <dc:type
           rdf:resource="http://purl.org/dc/dcmitype/StillImage" />
        <dc:title></dc:title>
      </cc:Work>
    </rdf:RDF>
  </metadata>
  <path
     style="color:#000000;font-style:normal;font-variant:normal;font-weight:normal;font-stretch:normal;font-size:medium;line-height:normal;font-family:'Andale Mono';text-indent:0pt;text-align:start;text-decoration:none;text-decoration-line:none;letter-spacing:normal;word-spacing:normal;text-transform:none;direction:ltr;text-anchor:start;display:inline;overflow:visible;visibility:visible;fill:#e6e6e6;fill-opacity:1;stroke:none;stroke-width:5.99873972;marker:none"
     d="M 32.9375 -0.01171875 C 31.939073 0.30807755 31.603332 1.828195 32.373047 2.5429688 L 41.408203 11.625 C 42.242926 12.420622 43.90524 11.739587 43.949219 10.583984 L 43.949219 1.5019531 C 43.949129 0.70932976 43.231852 -0.01162885 42.443359 -0.01171875 L 33.408203 -0.01171875 C 33.252508 -0.03570975 33.093105 -0.03570975 32.9375 -0.01171875 z M 6.4375 0.013671875 C 5.062346 0.27607035 3.975341 1.6123099 4 3.0117188 L 4 45 C 4.00015 46.570313 5.429312 47.99985 7 48 L 41 48 C 42.570687 47.99985 43.99985 46.570313 44 45 L 44 18.818359 C 44.018 18.026395 43.707481 17.231289 43.15625 16.662109 L 27.34375 0.85742188 C 26.774429 0.30647497 25.979653 -0.004681045 25.1875 0.013671875 L 7 0.013671875 C 6.813106 -0.004321175 6.624454 -0.004321175 6.4375 0.013671875 z M 10.527344 3.0214844 L 25.34375 3.0214844 L 25.671875 3.0214844 L 25.859375 3.2089844 L 40.765625 18.208984 L 41 18.443359 L 41 18.771484 L 41 44.271484 L 41 44.998047 L 40.25 44.998047 L 10.527344 44.998047 L 10.527344 3.0214844 z M 12.992188 17.248047 C 12.661143 17.248047 12.392578 17.516612 12.392578 17.847656 L 12.392578 34.017578 C 12.392578 35.338779 13.465851 36.414062 14.787109 36.414062 L 21.742188 36.414062 L 19.609375 42.8125 C 19.504661 43.126588 19.674755 43.464206 19.988281 43.568359 C 20.051451 43.589419 20.11513 43.599609 20.177734 43.599609 C 20.428657 43.599609 20.662435 43.442328 20.746094 43.191406 L 23.005859 36.414062 L 24.96875 36.414062 L 24.96875 43.001953 C 24.96875 43.332997 25.237315 43.599609 25.568359 43.599609 C 25.899404 43.599609 26.167969 43.332997 26.167969 43.001953 L 26.167969 36.414062 L 28.130859 36.414062 L 30.390625 43.191406 C 30.474285 43.442328 30.708062 43.599609 30.958984 43.599609 C 31.021584 43.599609 31.085271 43.589449 31.148438 43.568359 C 31.461908 43.464262 31.632002 43.126588 31.527344 42.8125 L 29.394531 36.414062 L 36.349609 36.414062 C 37.670811 36.414062 38.744141 35.338836 38.744141 34.017578 L 38.744141 17.847656 C 38.744029 17.516668 38.475575 17.248047 38.144531 17.248047 L 12.992188 17.248047 z M 14.787109 19.644531 L 36.349609 19.644531 L 36.349609 34.017578 L 14.787109 34.017578 L 14.787109 19.644531 z M 29.759766 20.841797 C 29.428721 20.841797 29.162109 21.110361 29.162109 21.441406 L 29.162109 32.220703 C 29.162165 32.551693 29.428721 32.820312 29.759766 32.820312 L 33.353516 32.820312 C 33.684561 32.820312 33.953125 32.551748 33.953125 32.220703 L 33.953125 21.441406 C 33.953125 21.110417 33.684561 20.841797 33.353516 20.841797 L 29.759766 20.841797 z M 23.771484 23.238281 C 23.440439 23.238281 23.171875 23.504893 23.171875 23.835938 L 23.171875 32.220703 C 23.171875 32.55175 23.440439 32.820312 23.771484 32.820312 L 27.365234 32.820312 C 27.696279 32.820312 27.964844 32.551748 27.964844 32.220703 L 27.964844 23.835938 C 27.964844 23.504894 27.696279 23.238281 27.365234 23.238281 L 23.771484 23.238281 z M 17.783203 26.830078 C 17.452158 26.830078 17.183594 27.098642 17.183594 27.429688 L 17.183594 32.220703 C 17.183594 32.55175 17.452158 32.820312 17.783203 32.820312 L 21.376953 32.820312 C 21.707998 32.820312 21.974609 32.551748 21.974609 32.220703 L 21.974609 27.429688 C 21.974609 27.098643 21.707998 26.830078 21.376953 26.830078 L 17.783203 26.830078 z "
     id="path856" />
</svg>

<svg xmlns="http://www.w3.org/2000/svg" width="48" height="48"><defs><linearGradient id="a"><stop offset="0" stop-color="#dc85e9"/><stop offset="1" stop-color="#f2cbf8"/></linearGradient><linearGradient id="b"><stop offset="0" stop-color="#dc85e9"/><stop offset="1" stop-color="#f2cbf8"/></linearGradient><linearGradient id="c"><stop offset="0" stop-color="#fff" stop-opacity=".588"/><stop offset="1" stop-color="#fff" stop-opacity=".863"/></linearGradient><linearGradient id="d"><stop offset="0" stop-color="#b3b3b3"/><stop offset="1" stop-color="#e6e6e6"/></linearGradient><linearGradient id="e"><stop offset="0" stop-color="#e694bb"/><stop offset=".262" stop-color="#d3819a"/><stop offset=".705" stop-color="#b25a64"/><stop offset="1" stop-color="#98313d"/></linearGradient></defs><path style="line-height:normal;text-indent:0;text-align:start;text-decoration-line:none;text-transform:none;marker:none" d="M32.938-.012c-.999.32-1.335 1.84-.565 2.555l9.035 9.082c.835.796 2.497.115 2.541-1.041V1.502c0-.793-.717-1.514-1.506-1.514h-9.035a1.548 1.548 0 0 0-.47 0zm-26.5.026C5.062.276 3.974 1.612 4 3.012V45c0 1.57 1.43 3 3 3h34c1.57 0 3-1.43 3-3V18.818a3.038 3.038 0 0 0-.844-2.156L27.344.857a3.038 3.038 0 0 0-2.157-.843H7a2.938 2.938 0 0 0-.563 0zm4.09 3.007h15.144l.187.188 14.907 15 .234.234v26.555H10.527V3.021zm2.464 14.227a.6.6 0 0 0-.6.6v16.17a2.398 2.398 0 0 0 2.395 2.396h6.955l-2.133 6.398a.597.597 0 0 0 .569.788c.25 0 .484-.158.568-.409l2.26-6.777h1.963v6.588c0 .331.268.598.6.598.33 0 .599-.267.599-.598v-6.588h1.963l2.26 6.777a.598.598 0 0 0 1.136-.379l-2.132-6.398h6.955a2.398 2.398 0 0 0 2.394-2.396v-16.17a.6.6 0 0 0-.6-.6H12.993zm1.795 2.397H36.35v14.373H14.787V19.645zm14.973 1.197a.598.598 0 0 0-.598.6V32.22c0 .33.267.6.598.6h3.594a.6.6 0 0 0 .6-.6V21.44a.6.6 0 0 0-.6-.6H29.76zm-5.989 2.396c-.33 0-.6.267-.6.598v8.385a.6.6 0 0 0 .6.6h3.594a.6.6 0 0 0 .6-.6v-8.385a.598.598 0 0 0-.6-.598h-3.594zm-5.988 3.592a.6.6 0 0 0-.6.6v4.79a.6.6 0 0 0 .6.6h3.594a.598.598 0 0 0 .598-.6v-4.79c0-.331-.267-.6-.598-.6h-3.594z" color="#000" font-weight="400" font-family="Andale Mono" overflow="visible" fill="#e6e6e6"/></svg>
